X:1
T:ERRATIC
T:ERRATIC
T:Companion piece to the famous "Eccentric"
T:By J. RUSSEL ROBINSON
T:Copyright 1923 by Jack Mills Inc
T:Copyright 1923 by Jack Mills Inc
T:Copyright 1923 by Jack Mills Inc
T:Copyright 1923 by Jack Mills Inc
C:By J. RUSSEL ROBINSON
Z:Copyright 1923 by Jack Mills Inc
%%score { ( 1 2 ) | 3 }
L:1/8
Q:1/4=180
M:2/2
K:C
V:1 treble nm="Piano" snm="Pno."
V:2 treble 
V:3 bass 
V:1
"^Allegro Moderato"!ff! !^!g'3 !^!d'- !^!d'2 !^!c'2 | !^!g2 !^!d2 z2 [Bfg]2 | %2
 [EA]ce[_Ba]- [Ba]e [Ba]2 | [=Bfg]2 z2 !arpeggio!!^![fbg']2 z2 |: %4
!mf!!f! !^!g'3 !^!d'- !^!d'2 !^!c'2 | !^!g2 !^!d2 G2 G[eg]- | g !^!g'3 !^!d'2 !^!c'2 | %7
 !^!g2 !^!d2 z2 [Bfg]2 | .[Aea] .[Aea]2 !^![_Bea]- [Bea]e !^![Bea]2 | %9
 [=Bfa]d'[fa]!^![Bg]- [Bg][fa] [Bg]2 | %10
!8va(! .[ae'a'] .[ae'a']2 !^![_be'a']- [be'a']e' !^![be'a']2 | %11
 [=bf'a']d''[f'a']!^![bg']- [bg'][f'a'] [bg']2!8va)! | !^!g'3 !^!d'- !^!d'2 !^!c'2 | %13
 !^!g2 !^!d2 G2 G[eg]- | g !^!g'3 !^!d'2 !^!c'2 | !^!g2 !^!d2 z2 [Bfg]2 | %16
 [cc']^de!^![cc']- [cc']e !^![Bb]2 | [Bb]^cd!^![Bb]- [Bb]^d [Aa]2 | %18
 !^![Aa]^de!^![Gg]- [Gg]e !^![FB=d]2 ||1 %19
 [EGc]((!>![^Gd][Ac]))((!>![^da] [eg]))((!>![^gd'][ac']))!>![^d'a'] :|2 %20
 [EGc]2 !>![cec']2 !>![Bfb]2 !>![_Bg_b]2 |:!mp!!f! .[Afa]2 .[eae']2 .[dad']2 .[eae']2 | %22
 .[dad'] .[eae']2 !^![dad']- [dad'].[cc'].[Aa].[_A_a] | .[Gcg]2 .[ded']2 .[cec']2 .[ded']2 | %24
 .[cec'] .[ded']2 !^![cec']- [cec'].a.[_Beg].^f | [B=f]2 !>!b[Be]- [Be]!>!b [Bd]2 | %26
 !>!b [B^c]2 !>!b !>![Bd]2 !>![B^d]2 | .[ce]2 .[ceg]2 .[ded'] .[cec']2 !^![Geg]- | %28
 [Geg]2 !>![ee']!>![_e_e'] !>![dd']!>![_d_d']!>![cc']!>![Bb] | .[Afa]2 .[eae']2 .[dad']2 .[eae']2 | %30
 .[dad'] .[eae']2 !^![dad']- [dad'].[cc'].[Aa].[_A_a] | .[Gcg]2 .[ded']2 .[cec']2 .[ded']2 | %32
 .[cec'] .[ded']2 !^![cec']- [cec'][^F^f][Gcg][^G^g] | [Ada] [Bb]2 [Ada] [B^db]2 [Ada]2 | %34
 !^![A_eg]2 !^![^Gd^f]2 !^![=G_d=f]2 !^![^Fce]2 | %35
 !^![=Fce] !^![Fcd]2 !^![=ABf]- [ABf]!^![^F^d] !^![=FBe]2 ||1 %36
!<(! [EGc]2 !>![cec']2 !>![Bfb]2 !>![_Bg_b]2!<)! :|2 [EGc]2 !>![GBfg]2 !>![cec']2 z2 || %38
!f! !^!g'3 !^!d'- !^!d'2 !^!c'2 | !^!g2 !^!d2 G2 G[eg]- | g !^!g'3 !^!d'2 !^!c'2 | %41
 !^!g2 !^!d2 z2 [Bfg]2 | .[Aea] .[Aea]2 !^![_Bea]- [Bea]e !^![Bea]2 | %43
 [=Bfa]d'[fa]!^![Bg]- [Bg][fa] [Bg]2 | %44
!8va(! .[ae'a'] .[ae'a']2 !^![_be'a']- [be'a']e' !^![be'a']2 | %45
 [=bf'a']d''[f'a']!^![bg']- [bg'][f'a'] [bg']2!8va)! | !^!g'3 !^!d'- !^!d'2 !^!c'2 | %47
 !^!g2 !^!d2 G2 G[eg]- | g !^!g'3 !^!d'2 !^!c'2 | !^!g2 !^!d2 z2 [Bfg]2 | %50
 [cc']^de!^![cc']- [cc']e !^![Bb]2 | [Bb]^cd!^![Bb]- [Bb]^d [Aa]2 | %52
 !^![Aa]^de!^![Gg]- [Gg]e !^![FB=d]2 | %53
 [EGc]2!8va(! !^![c'e'g'c'']2 !^![d'f'b'd'']2 !^![e'g'_b'e'']2!8va)! |: %54
[K:F][M:2/2]!mf!"^TRIO"!8va(!{c''d''e''} .f''.d''.c''.a' (^g'a')(g'a')!8va)! | %55
"^loco"{c'd'e'} .f'.d'.c'.a (^ga)(ga) |{cde} .f.d.c.A (.^G.A)(.G.A) | F2{/G} ^GA f=Bc^c | %58
 d ^D2 E- EABA | B^FGA B=Bc^c | d E2 F- F{/G}^GAc | f^gac' f'{/=g}^gac' | %62
!8va(!{c''d''e''} .f''.d''.c''.a' (^g'a')(g'a')!8va)! |"^loco"{c'd'e'} .f'.d'.c'.a (^ga)(ga) | %64
{cde} .f.d.c.A (.^G.A)(.G.A) | F2{/G} ^GA f=Bc^c | d3 A BGEC | B,CE[B,EA]- [B,EA]^G [B,EA]2 |1 %68
 .[A,CF].^G,.A,.!^!C .F{/G}.^G.!^!A.c | f{/g}^ga!^!c' f'{/=g}^g!^!ac' :|2 %70
 .[A,CF]{/G}.^G.A.c .f{/g}.^g.a.c' |!<(! .f' !^![ebd']2 .c' !>![faf']2!<)! z2 || %72
[K:C]!ff! !^!g'3 !^!d'- !^!d'2 !^!c'2 | !^!g2 !^!d2 !^!G2 G[eg]- | g !^!g'3 !^!d'2 !^!c'2 | %75
 !^!g2 !^!d2 z2 [Bfg]2 | .[Aea] .[Aea]2 !^![_Bea]- [Bea]e !^![Bea]2 | %77
 [=Bfa]d'[fa]!^![Bg]- [Bg][fa] [Bg]2 | %78
!8va(! .[ae'a'] .[ae'a']2 !^![_be'a']- [be'a']e' !^![be'a']2 | %79
 [=bf'a']d''[f'a']!^![bg']- [bg'][f'a'] [bg']2!8va)! | !^!g'3 !^!d'- !^!d'2 !^!c'2 | %81
 !^!g2 !^!d2 !^!G2 G[eg]- | g !^!g'3 !^!d'2 !^!c'2 | !^!g2 !^!d2 z2 [Bfg]2 | %84
 [cc']^de!^![cc']- [cc']e !^![Bb]2 | [Bb]^cd!^![Bb]- [Bb]^d !^![Aa]2 | %86
 !^![Aa]^de!^![Gg]- [Gg]e !^![FB=d]2 |!<(! [EGc]4!<)! !>![cegc']2 z2 |] %88
V:2
 e'd'c'b- bage | dcBA G4 | x8 | x8 |: e'd'c'b- bage | dcBA x4 | ee'd'c' bage | dcBA G4 | x8 | x8 | %10
!8va(! x8 | x8!8va)! | e'd'c'b- bage | dcBA x4 | ee'd'c' bage | dcBA G4 | x8 | x8 | x8 ||1 x8 :|2 %20
 x8 |: x8 | x8 | x8 | x8 | x8 | x8 | x8 | x8 | x8 | x8 | x8 | x8 | x8 | x8 | x8 ||1 x8 :|2 x8 || %38
 e'd'c'b- bage | dcBA x4 | ee'd'c' bage | dcBA G4 | x8 | x8 |!8va(! x8 | x8!8va)! | e'd'c'b- bage | %47
 dcBA x4 | ee'd'c' bage | dcBA G4 | x8 | x8 | x8 | x2!8va(! x6!8va)! |: %54
[K:F][M:2/2]!8va(! x8!8va)! | x8 | x8 | x8 | x8 | x8 | x8 | x4 [FAc]2 [Acf]2 |!8va(! x8!8va)! | %63
 x8 | x8 | x8 | x8 | x8 |1 x8 | x3 !^![FAc] z2 !^![Acf] z :|2 x8 | x8 ||[K:C] e'd'c'b- bage | %73
 dcBA x4 | ee'd'c' bage | dcBA G4 | x8 | x8 |!8va(! x8 | x8!8va)! | e'd'c'b- bage | dcBA x4 | %82
 ee'd'c' bage | dcBA G4 | x8 | x8 | x8 | x8 |] %88
V:3
 !arpeggio![C,,G,,E,]2 [G,CE]2 G,,2 [G,CE]2 | B,,2 [G,B,F]2 G,,2 [G,B,F]2 | %2
 [C,C]3 [^C,^C]- [C,C]2 [C,C]2 | [D,D]2 z2 !arpeggio!!^![G,,D,B,]2 z2 |: %4
"^-" !arpeggio![C,,G,,E,]2 [G,CE]2!8vb(! G,,,2!8vb)! [G,CE]2 | %5
 [B,,,B,,]2 [G,B,F]2!8vb(! G,,,2!8vb)! [G,B,F]2 | [C,,C,]2 [G,CE]2!8vb(! G,,,2!8vb)! [G,CE]2 | %7
 [C,,C,]2 [G,B,F]2!8vb(! G,,,2!8vb)! [G,B,F]2 | [C,,C,]2 [G,CE]2 [^C,,^C,]2 [G,^CE]2 | %9
 [D,,D,]2 [G,B,F]2!8vb(! G,,,2!8vb)! [G,B,F]2 | [C,,C,]2 [G,CE]2 [^C,,^C,]2 [G,^CE]2 | %11
 [D,,D,]2 [G,B,F]2!8vb(! G,,,2!8vb)! [G,B,F]2 | %12
 !arpeggio![C,,G,,E,]2 [G,CE]2!8vb(! G,,,2!8vb)! [G,CE]2 | %13
 [B,,,B,,]2 [G,B,F]2!8vb(! G,,,2!8vb)! [G,B,F]2 | [C,,C,]2 [G,CE]2!8vb(! G,,,2!8vb)! [G,CE]2 | %15
 [B,,,B,,]2 [G,B,F]2!8vb(! G,,,2!8vb)! [G,B,F]2 | [C,,C,]2 [G,CE]2 [^C,,^C,]2 [G,^CE]2 | %17
 [F,,F,]2 [F,A,D]2 [^F,,^F,]2 [!courtesy!^F,C^D]2 | C,2 [G,CE]2 G,,2 [F,G,B,]2 ||1 %19
 !>!C, z !>!G, z !>!C z !>!G z :|2 C,2 !>![C,,C,]2 !>![D,,D,]2 !>![E,,E,]2 |: %21
"^-" [F,,F,]2 [F,A,D]2 [D,,D,]2 [F,A,D]2 | [F,,F,]2 [F,A,D]2 [D,,D,]2 [^D,,^D,]2 | %23
 [E,,E,]2 [G,CE]2 G,,2 [G,CE]2 | [C,,C,]2 [G,E]2 [C,,C,]2 [^C,,^C,]2 | %25
 [D,,D,]2 !>![G,B,F]G,,- G,,!>![G,B,F] D,2 | !>![G,B,F] G,,2 !>![G,B,F] !>!D,2 !>!G,,2 | %27
 C,2 [G,CE]2 G,,2 [G,CE]2 | [C,,C,]2 !>![E,E]!>![_E,_E] !>![D,D]!>![_D,_D]!>![C,C]!>![B,,B,] | %29
 [F,,F,]2 [F,A,D]2 [D,,D,]2 [F,A,D]2 | [F,,F,]2 [F,A,D]2 [D,,D,]2 [^D,,^D,]2 | %31
 [E,,E,]2 [G,CE]2 G,,2 [G,CE]2 | [C,,C,]2 [G,CE]2 [G,CE]2 [E,,E,]2 | %33
 [F,,F,]2 [F,A,D]2 [^F,,^F,]2 [F,C^D]2 | [=F,C]2 [E,B,]2 [_E,_B,]2 [D,A,]2 | %35
 !^![_A,,_A,] !^![A,,A,]2 !^![G,,G,]- [G,,G,]2 !^![G,,G,]2 ||1 %36
 [C,C]2 !>![C,,C,]2 !>![D,,D,]2 !>![E,,E,]2 :|2 [C,C]2 !^![G,,G,]2 !^![C,,C,]2 z2 || %38
 !arpeggio![C,,G,,E,]2 [G,CE]2!8vb(! G,,,2!8vb)! [G,CE]2 | %39
 [B,,,B,,]2 [G,B,F]2!8vb(! G,,,2!8vb)! [G,B,F]2 | [C,,C,]2 [G,CE]2!8vb(! G,,,2!8vb)! [G,CE]2 | %41
 [C,,C,]2 [G,B,F]2!8vb(! G,,,2!8vb)! [G,B,F]2 | [C,,C,]2 [G,CE]2 [^C,,^C,]2 [G,^CE]2 | %43
 [D,,D,]2 [G,B,F]2!8vb(! G,,,2!8vb)! [G,B,F]2 | [C,,C,]2 [G,CE]2 [^C,,^C,]2 [G,^CE]2 | %45
 [D,,D,]2 [G,B,F]2!8vb(! G,,,2!8vb)! [G,B,F]2 | %46
 !arpeggio![C,,G,,E,]2 [G,CE]2!8vb(! G,,,2!8vb)! [G,CE]2 | %47
 [B,,,B,,]2 [G,B,F]2!8vb(! G,,,2!8vb)! [G,B,F]2 | [C,,C,]2 [G,CE]2!8vb(! G,,,2!8vb)! [G,CE]2 | %49
 [B,,,B,,]2 [G,B,F]2!8vb(! G,,,2!8vb)! [G,B,F]2 | [C,,C,]2 [G,CE]2 [^C,,^C,]2 [G,^CE]2 | %51
 [F,,F,]2 [F,A,D]2 [^F,,^F,]2 [!courtesy!^F,C^D]2 | C,2 [G,CE]2 G,,2 [F,G,B,]2 | %53
 C,2 [E,,E,]2 [D,,D,]2 [C,,C,]2 |:[K:F][M:2/2] !arpeggio![F,,C,A,]2 [F,A,D]2 [C,,C,]2 [G,B,CE]2 | %55
 !arpeggio![F,,C,A,]2 [F,A,D]2 [C,,C,]2 [G,B,CE]2 | [F,,F,]2 [A,CF]2 [C,,C,]2 [B,CE]2 | %57
 [F,,F,]2 [A,CF]2 [A,,A,]2 [_A,,_A,]2 | [G,,G,]2 [B,C]2 [C,,C,]2 [B,C]2 | %59
 [G,,G,]2 [B,C]2 [C,,C,]2 [B,C]2 | [F,,F,]2 [F,A,]2 [C,,C,]2 [F,A,C]2 | %61
 [F,,F,]2 [A,CF]2"^L.H." x4 | !arpeggio![F,,C,A,]2 [F,A,D]2 [C,,C,]2 [G,B,CE]2 | %63
 !arpeggio![F,,C,A,]2 [F,A,D]2 [C,,C,]2 [G,B,CE]2 | [F,,F,]2 [A,CF]2 [C,,C,]2 [B,CE]2 | %65
 [F,,F,]2 [A,CF]2 [A,,A,]2 [_A,,_A,]2 | [G,,G,]2 [B,C]2 [C,,C,]2 [G,B,]2 | %67
 [C,,C,]3 [C,,C,]- [C,,C,]2 [C,,C,]2 |1 [F,,F,] z z !^![C,F,A,] z2 !^![F,A,C] z | %69
 !^![A,CF] z z x x4 :|2 [F,,F,]2 z2 z4 | z2 [C,,C,]2 [F,,F,]2 z2 || %72
[K:C] !arpeggio![C,,G,,E,]2 [G,CE]2!8vb(! G,,,2!8vb)! [G,CE]2 | %73
 [B,,,B,,]2 [G,B,F]2!8vb(! G,,,2!8vb)! [G,B,F]2 | [C,,C,]2 [G,CE]2!8vb(! G,,,2!8vb)! [G,CE]2 | %75
 [C,,C,]2 [G,B,F]2!8vb(! G,,,2!8vb)! [G,B,F]2 | [C,,C,]2 [G,CE]2 [^C,,^C,]2 [G,^CE]2 | %77
 [D,,D,]2 [G,B,F]2!8vb(! G,,,2!8vb)! [G,B,F]2 | [C,,C,]2 [G,CE]2 [^C,,^C,]2 [G,^CE]2 | %79
 [D,,D,]2 [G,B,F]2!8vb(! G,,,2!8vb)! [G,B,F]2 | %80
 !arpeggio![C,,G,,E,]2 [G,CE]2!8vb(! G,,,2!8vb)! [G,CE]2 | %81
 [B,,,B,,]2 [G,B,F]2!8vb(! G,,,2!8vb)! [G,B,F]2 | [C,,C,]2 [G,CE]2!8vb(! G,,,2!8vb)! [G,CE]2 | %83
 [B,,,B,,]2 [G,B,F]2!8vb(! G,,,2!8vb)! [G,B,F]2 | [C,,C,]2 [G,CE]2 [^C,,^C,]2 [G,^CE]2 | %85
 [F,,F,]2 [F,A,D]2 [^F,,^F,]2 [!courtesy!^F,C^D]2 | C,2 [G,CE]2 G,,2 [F,G,B,]2 | %87
 [C,G,]4 !>![C,,C,]2 z2 |] %88

